assets/images/afrikons/filter-outline.svg

<svg viewBox="0 0 50 50" xmlns="http://www.w3.org/2000/svg"><path d="m0 0h50v50h-50z" fill="none"/><path d="m25 23.48 9.83-17.02h-19.66z" fill="none"/><path d="m42.79 1.86a3.73 3.73 0 0 0 -3.23-1.86h-29.12a3.73 3.73 0 0 0 -3.23 5.59l14.56 25.22v19.19l6.46-5v-14.19l14.56-25.22a3.74 3.74 0 0 0 0-3.73zm-17.79 21.62-9.83-17h19.66z"/></svg>

<svg xmlns="http://www.w3.org/2000/svg" viewBox="0 0 50 50"><defs><style>.cls-1{fill:none;}</style></defs><title>filter-outline</title><g id="Layer_2" data-name="Layer 2"><g id="Layer_1-2" data-name="Layer 1"><rect class="cls-1" width="50" height="50"/><polygon class="cls-1" points="25 23.48 34.83 6.46 15.17 6.46 25 23.48"/><path d="M42.79,1.86A3.73,3.73,0,0,0,39.56,0H10.44A3.73,3.73,0,0,0,7.21,5.59L21.77,30.81V50l6.46-5V30.81L42.79,5.59A3.74,3.74,0,0,0,42.79,1.86ZM25,23.48l-9.83-17H34.83Z"/></g></g></svg>
